icons/folder-pipe-open.svg

<svg xmlns="http://www.w3.org/2000/svg" viewBox="0 0 32 32">
  <path d="M28.96692,12H9.44152a2,2,0,0,0-1.89737,1.36754L4,24V10H28a2,2,0,0,0-2-2H15.1241a2,2,0,0,1-1.28038-.46357L12.5563,6.46357A2,2,0,0,0,11.27592,6H4A2,2,0,0,0,2,8V24a2,2,0,0,0,2,2H26l4.80523-11.21213A2,2,0,0,0,28.96692,12Z" style="fill: #00897b"/>
  <path d="M30,22v2H24V22h2V20H24V16a2,2,0,0,0-2-2H16V12H14v8h2V18h4v2H18v2h2v4a2,2,0,0,0,2,2h8v2h2V22Z" style="fill: #b2dfdb;fill-rule: evenodd"/>
</svg>

<svg xmlns="http://www.w3.org/2000/svg" viewBox="0 0 32 32"><path fill="#00897b" d="M28.967 12H9.442a2 2 0 0 0-1.898 1.368L4 24V10h24a2 2 0 0 0-2-2H15.124a2 2 0 0 1-1.28-.464l-1.288-1.072A2 2 0 0 0 11.276 6H4a2 2 0 0 0-2 2v16a2 2 0 0 0 2 2h22l4.805-11.212A2 2 0 0 0 28.967 12Z"/><path fill="#b2dfdb" fill-rule="evenodd" d="M30 22v2h-6v-2h2v-2h-2v-4a2 2 0 0 0-2-2h-6v-2h-2v8h2v-2h4v2h-2v2h2v4a2 2 0 0 0 2 2h8v2h2v-8Z"/></svg>
